src/assets/Home/Gutman.svg

<svg width="93" height="12" viewBox="0 0 93 12" fill="none" xmlns="http://www.w3.org/2000/svg">
<path d="M6.40517 10.9067C5.78255 10.9926 5.40325 11.0212 4.79493 11.0212C3.19901 11.0212 2.16846 10.5489 1.41701 9.76163C0.271951 8.63088 0 6.71291 0 5.52491C0 4.57308 0.157446 2.69089 1.66749 1.23809C2.36168 0.565373 3.44949 0 5.07404 0C6.51968 0 7.22103 0.42224 7.22103 0.42224L7.58601 1.9967C7.52876 1.96091 6.69144 1.48858 5.43903 1.48858C4.26534 1.48858 3.57831 1.76768 2.8698 2.4905C2.09689 3.27057 1.83925 4.22956 1.83925 5.53207C1.83925 7.25681 2.29727 8.23011 2.94137 8.79548C3.44949 9.27498 4.17231 9.46105 4.95954 9.46105C5.74676 9.46105 6.07597 9.33223 6.07597 9.33223V6.37655H4.70905V5.01679H7.77209V10.6061C7.23534 10.7492 6.94908 10.8351 6.41233 10.9138L6.40517 10.9067Z" fill="#ED1C24"/>
<path d="M16.4094 9.18171C15.7295 10.4914 14.4771 11.0424 13.0315 11.0424C11.5858 11.0424 10.3334 10.4341 9.70364 9.16739C9.33866 8.45173 9.26709 7.79332 9.26709 6.92022V0.135742H11.0491V7.06335C11.0491 8.3086 11.5 9.51091 13.0315 9.51091C14.6417 9.51091 15.0639 8.3086 15.0639 7.06335V0.135742H16.8746V6.92022C16.8746 7.82195 16.7887 8.4732 16.4166 9.18171H16.4094Z" fill="#ED1C24"/>
<path d="M24.2395 1.66726H22.0711V10.8492H20.2819V1.66726H17.6841L18.0061 0.135742H24.6045L24.2395 1.66726Z" fill="#ED1C24"/>
<path d="M32.9483 10.8492V2.58331L30.0713 5.81094L27.2874 2.69781V10.8492H25.5054V0.135742H27.2301L30.0713 3.2775L32.9483 0.135742H34.7088V10.8492H32.9483Z" fill="#ED1C24"/>
<path d="M40.9218 0.135742H38.9752L35.7046 10.8492H37.4723L38.0806 8.76662H41.7877L42.3674 10.8492H44.2711L40.9218 0.135742ZM38.4742 7.31383L39.9485 2.08234H39.9771L41.4299 7.31383H38.4742Z" fill="#ED1C24"/>
<path d="M51.3487 10.8492L46.9832 3.4922V10.8492H45.2441V0.135742H46.8401L51.1913 7.37108V0.135742H52.9447V10.8492H51.3487Z" fill="#ED1C24"/>
<path d="M62.37 0.135742V10.8492H60.774L56.4085 3.49935V10.8492H54.6694V0.135742H56.2725L60.6166 7.37108V0.135742H62.37Z" fill="#ED1C24"/>
<path d="M74.4647 5.97578C73.7848 6.54115 72.8831 6.8131 71.6306 6.8131H70.4641V10.9425H68.4316V0H71.3158C72.4823 0 73.4842 0.157446 74.1498 0.572529C75.073 1.14506 75.5739 2.03964 75.5739 3.27773C75.5739 4.30828 75.2948 5.28874 74.4647 5.98293V5.97578ZM71.4231 1.61024H70.4713V5.21717H71.4231C72.833 5.21717 73.3339 4.61602 73.3339 3.38508C73.3339 2.15414 72.7757 1.6174 71.4231 1.6174V1.61024Z" fill="#6D6E71"/>
<path d="M81.1844 10.9425H78.9229L75.5879 0H77.7921L79.4954 6.40517C79.7029 7.21387 79.8747 8.03688 80.0679 8.93861C80.2397 8.10129 80.4329 7.24965 80.6619 6.42664L82.4654 0.00715662H84.5694L81.1844 10.9496V10.9425Z" fill="#6D6E71"/>
<path d="M91.54 10.4558C90.9674 10.7707 90.3591 10.9425 89.1282 10.9425H85.6357V0H88.6558C90.0299 0 90.5309 0.143132 91.0891 0.379301C91.955 0.744288 92.5848 1.63171 92.5848 2.71951C92.5848 3.80732 91.9622 4.77346 90.7599 5.12414C92.2055 5.45334 92.9999 6.32645 92.9999 7.7363C92.9999 8.9243 92.4775 9.9477 91.54 10.4558ZM88.8276 1.63171H87.6467V4.46573H88.9135C89.987 4.46573 90.4593 3.95761 90.4593 3.04156C90.4593 2.07542 89.7794 1.63171 88.8276 1.63171ZM88.8992 6.06166H87.6467V9.3036H89.0924C90.2589 9.3036 90.7456 8.63804 90.7456 7.67189C90.7456 6.54831 90.1516 6.06166 88.9063 6.06166H88.8992Z" fill="#6D6E71"/>
</svg>

<svg xmlns="http://www.w3.org/2000/svg" width="93" height="12" fill="none" viewBox="0 0 93 12"><path fill="#ed1c24" d="M6.405 10.907c-.622.086-1.002.114-1.61.114-1.596 0-2.627-.472-3.378-1.26C.272 8.632 0 6.714 0 5.526c0-.952.157-2.834 1.667-4.287C2.362.565 3.45 0 5.074 0 6.52 0 7.221.422 7.221.422l.365 1.575c-.057-.036-.895-.508-2.147-.508-1.174 0-1.86.279-2.57 1.001-.772.78-1.03 1.74-1.03 3.042 0 1.725.458 2.698 1.102 3.263.508.48 1.231.666 2.019.666.787 0 1.116-.129 1.116-.129V6.377H4.709v-1.36h3.063v5.59c-.537.142-.823.228-1.36.307zM16.41 9.182c-.68 1.31-1.933 1.86-3.379 1.86s-2.698-.608-3.327-1.875c-.365-.715-.437-1.374-.437-2.247V.136h1.782v6.927c0 1.246.451 2.448 1.983 2.448 1.61 0 2.032-1.202 2.032-2.448V.136h1.81V6.92c0 .902-.085 1.553-.457 2.262zM24.24 1.667H22.07v9.182h-1.79V1.667h-2.597l.322-1.531h6.599zM32.948 10.85V2.582l-2.877 3.228-2.784-3.113v8.151h-1.782V.136h1.725l2.841 3.141L32.948.136h1.76v10.713zM40.922.136h-1.947l-3.27 10.713h1.767l.609-2.082h3.707l.58 2.082h1.903zm-2.448 7.178 1.475-5.232h.028l1.453 5.232zM51.349 10.85l-4.366-7.358v7.357h-1.739V.136h1.596l4.351 7.235V.136h1.754v10.713zM62.37.136v10.713h-1.596L56.408 3.5v7.35H54.67V.136h1.604l4.344 7.235V.136z"/><path fill="#6d6e71" d="M74.465 5.976c-.68.565-1.582.837-2.834.837h-1.167v4.13h-2.032V0h2.884c1.166 0 2.168.157 2.834.573.923.572 1.424 1.467 1.424 2.705 0 1.03-.28 2.01-1.11 2.705zM71.423 1.61h-.952v3.607h.952c1.41 0 1.91-.601 1.91-1.832 0-1.23-.557-1.768-1.91-1.768zM81.184 10.943h-2.261L75.588 0h2.204l1.703 6.405c.208.809.38 1.632.573 2.534.172-.838.365-1.69.594-2.512l1.803-6.42h2.104L81.184 10.95zM91.54 10.456c-.573.315-1.18.487-2.412.487h-3.492V0h3.02c1.374 0 1.875.143 2.433.38.866.364 1.496 1.252 1.496 2.34s-.623 2.053-1.825 2.404c1.445.33 2.24 1.202 2.24 2.612 0 1.188-.522 2.212-1.46 2.72m-2.712-8.824h-1.181v2.834h1.266c1.074 0 1.546-.508 1.546-1.424 0-.967-.68-1.41-1.631-1.41m.071 4.43h-1.252v3.242h1.445c1.167 0 1.654-.666 1.654-1.632 0-1.124-.594-1.61-1.84-1.61z"/></svg>
